X: 14992
T: Gentle Giant, The
R: reel
M: 4/4
K: Eminor
M:7/8
E2EE B2B|A2GE GAA|D2DD A2A|A2F2 FFB|
E2EE B2B|A2GE GAA|D2DD A2A|A2F2 FFD|
E2EE ABd|A2GE GAA|D2DD A2A|A2F2 FFB|
E2EE B2B|A2GE GAA|D2DD A2A|A2F2 FFB||
c2ec g2g|f2d2 dee|GAdA dea|e2c2 ABG|
c2ec g3|f2d2 dee|GAdA dee|GAdA dee|
c2ec g2b|f2d2 dee|GAdA dea|e2c2 ABG|
c2ec g2g|f2d2 dee|GAdA dee|GAdA dee||

